z_dist/img/bg/bp428/about-header-wave.svg

<svg width="428" height="1105" fill="none" xmlns="http://www.w3.org/2000/svg"><path fill-rule="evenodd" clip-rule="evenodd" d="M428 0H0v1024h428V0zM0 1024v56.25l17.833-5.62c17.834-5.63 53.5-16.88 89.167-20.63 23.778-2.5 47.556-1.67 71.333-.83 11.889.41 23.778.83 35.667.83 10.955 0 21.91-.84 32.864-1.69 24.712-1.91 49.424-3.81 74.136 3.98 8.423 1.32 12.507 2.7 17.087 4.26 4.47 1.51 9.413 3.19 19.323 5.12 20.062 3.9 41.462 15.49 52.757 25.62 11.294 10.13 17.833 13.13 17.833 13.13V1024H0z" fill="#FFFCFF"/></svg>

<svg width="428" height="1105" viewBox="0 0 428 1105" fill="none" xmlns="http://www.w3.org/2000/svg">
<path fill-rule="evenodd" clip-rule="evenodd" d="M428 0H0V1024H428V0ZM3.05176e-05 1024V1080.25L17.8334 1074.63C35.6667 1069 71.3334 1057.75 107 1054C130.778 1051.5 154.556 1052.33 178.333 1053.17C190.222 1053.58 202.111 1054 214 1054C224.955 1054 235.91 1053.16 246.864 1052.31C271.576 1050.4 296.288 1048.5 321 1056.29C329.423 1057.61 333.507 1058.99 338.087 1060.55C342.557 1062.06 347.5 1063.74 357.41 1065.67C377.472 1069.57 398.872 1081.16 410.167 1091.29C421.461 1101.42 428 1104.42 428 1104.42V1024H410.167H321H214H107H17.8334H3.05176e-05Z" fill="#FFFCFF"/>
</svg>
